icons/file-removed-16.svg

<svg xmlns="http://www.w3.org/2000/svg" width="16" height="16" viewBox="0 0 16 16"><path fill-rule="evenodd" d="M3.75 1.5a.25.25 0 00-.25.25v12.5c0 .138.112.25.25.25h9.5a.25.25 0 00.25-.25V4.664a.25.25 0 00-.073-.177l-2.914-2.914a.25.25 0 00-.177-.073H3.75zM2 1.75C2 .784 2.784 0 3.75 0h6.586c.464 0 .909.184 1.237.513l2.914 2.914c.329.328.513.773.513 1.237v9.586A1.75 1.75 0 0113.25 16h-9.5A1.75 1.75 0 012 14.25V1.75zM8.25 7.5h2.242a.75.75 0 010 1.5h-2.24l-2.254.015a.75.75 0 01-.01-1.5L8.25 7.5z"/></svg>

<svg xmlns="http://www.w3.org/2000/svg" width="16" height="16" viewBox="0 0 16 16">
  <defs/>
  <path d="M2,1.75 C2,0.784 2.784,0 3.75,0 L10.336,0 C10.8,0 11.245,0.184 11.573,0.513 L14.487,3.427 C14.816,3.755 15,4.2 15,4.664 L15,14.25 C15,15.216 14.216,16 13.25,16 L3.75,16 C2.784,16 2,15.216 2,14.25 Z M3.75,1.5 C3.612,1.5 3.5,1.612 3.5,1.75 L3.5,14.25 C3.5,14.388 3.612,14.5 3.75,14.5 L13.25,14.5 C13.388,14.5 13.5,14.388 13.5,14.25 L13.5,4.664 C13.5,4.598 13.474,4.534 13.427,4.487 L10.513,1.573 C10.466,1.526 10.402,1.5 10.336,1.5 Z M8.25,7.5 L10.492,7.5 C10.906,7.5 11.242,7.836 11.242,8.25 C11.242,8.664 10.906,9 10.492,9 L8.252,9 L5.998,9.015 C5.584,9.018 5.246,8.684 5.243,8.27 C5.24,7.856 5.574,7.518 5.988,7.515 Z"/>
</svg>
